coreui/free/cil-book.svg

<svg viewBox="0 0 512 512" xmlns="http://www.w3.org/2000/svg"><path d="M101.667 400h362.33V16H100.65l0-.001c-33.47.1-60.56 27.2-60.67 60.667v353.583h.01c0 .15-.02.3-.02.45 0 35.4 27.78 65.3 60.667 65.3h363.33v-32.01H100.63c-15.01 0-28.67-15.88-28.67-33.3 0-16.64 13.58-30.7 29.667-30.7ZM359.99 48.33v172.81l-48.4-42.49 -47.6 42.24V48.32Zm-128-.34v216h31.64l48.07-42.66 48.589 42.65h31.69v-216h40v320H136.06l-.08-320Zm-131.333 0h3.33l.07 320h-2.42v0c-10.41 0-20.63 2.71-29.67 7.88V76.9v-.001c-.06-15.9 12.77-28.83 28.667-28.92Z"/></svg>

<svg xmlns="http://www.w3.org/2000/svg" viewBox="0 0 512 512">
  <path fill="var(--ci-primary-color, currentColor)" d="M101.667,400H464V16H100.667A60.863,60.863,0,0,0,40,76.667V430.25h.011c0,.151-.011.3-.011.453,0,35.4,27.782,65.3,60.667,65.3H464V464H100.667C85.664,464,72,448.129,72,430.7,72,414.06,85.585,400,101.667,400ZM360,48.333V221.149l-48.4-42.49L264,220.9V48.333ZM232,48V264h31.641l48.075-42.659L360.305,264H392V48h40V368H136.08L136,48ZM100.667,48H104l.076,320h-2.413A59.793,59.793,0,0,0,72,375.883V76.917A28.825,28.825,0,0,1,100.667,48Z" class="ci-primary"/>
</svg>
